X:1
T: The Maids of Araglen
C:
R:Reel
Q: 232
K:G
M:4/4
L:1/8
|:D|G2 G2 G2 AB|cB AG E2 DE|G2 ((3GAB) G2 Bd|eg fe d2 zd|
ed ef gf ed|cB AG A2 BA|GE DB, DE GA|B2 G2 G2 zd|
ed ef g2 fe|dB AG A2 Bd|ed ef g2 fd|eg fe d3d|
ed ef gf ed|cB AG A2 BA|GE DB, DE GA|B2 G2 G3:|
